icons/1_Primary/Oracle.svg

<svg width="1024" height="1024" fill="none" xmlns="http://www.w3.org/2000/svg"><g clip-path="url(#a)"><path d="M512 1024c282.77 0 512-229.23 512-512S794.77 0 512 0 0 229.23 0 512s229.23 512 512 512Z" fill="#FF837D"/><path d="M466.88 525.07h44.19l-23.34-37.69-42.91 68.08H425.3l52.19-81.68a12.434 12.434 0 0 1 10.114-5.318 12.438 12.438 0 0 1 10.186 5.178l52.34 81.82h-19.52l-9.19-15.22h-44.71L467 525.07m202.76 15.16v-71h-16.62v77.94a7.993 7.993 0 0 0 2.46 5.8 8.379 8.379 0 0 0 6 2.52H737l9.83-15.22h-77.19m-274.12-12.71a29.143 29.143 0 0 0 26.922-17.989 29.143 29.143 0 0 0-6.317-31.756 29.145 29.145 0 0 0-20.605-8.535H323v86.17h16.56v-70.92h54.92a13.947 13.947 0 0 1 13.577 13.945 13.948 13.948 0 0 1-13.577 13.945H347.8l49.47 43h24l-33.23-27.89h7.45M221.2 555.46h50.07a43.092 43.092 0 0 0 41.777-43.07 43.09 43.09 0 0 0-41.777-43.07H221.2a43.086 43.086 0 0 0-43.46 41.988A43.092 43.092 0 0 0 219 555.46h2.24m48.94-15.16h-47.87a27.89 27.89 0 0 1 0-55.76h47.84a27.898 27.898 0 0 1 19.978 7.529 27.899 27.899 0 0 1 1.272 39.429 27.895 27.895 0 0 1-19.45 8.802h-1.8m314.57 15.16h51.12l9.68-15.16h-59.68a27.9 27.9 0 0 1-26.313-16.379 27.884 27.884 0 0 1-.689-21.339 27.903 27.903 0 0 1 14.601-15.575 27.884 27.884 0 0 1 10.601-2.467h50.37l9.8-15.22h-59.5a43.093 43.093 0 0 0-43.511 41.968 43.089 43.089 0 0 0 41.271 44.172h2.24m202.59-15.17A27.892 27.892 0 0 1 760.45 520h70.81l9.74-15.2h-80.55a27.857 27.857 0 0 1 26.85-20.3h48.6l9.71-15.22h-59.44a43.09 43.09 0 0 0 0 86.14h51.12l9.71-15.16h-59.73" fill="#fff"/></g><defs><clipPath id="a"><path fill="#fff" d="M0 0h1024v1024H0z"/></clipPath></defs></svg>

<svg width="1024" height="1024" viewBox="0 0 1024 1024" fill="none" xmlns="http://www.w3.org/2000/svg">
<g clip-path="url(#clip0_2_3060)">
<path d="M512 1024C794.77 1024 1024 794.77 1024 512C1024 229.23 794.77 0 512 0C229.23 0 0 229.23 0 512C0 794.77 229.23 1024 512 1024Z" fill="#FF837D"/>
<path d="M466.88 525.07H511.07L487.73 487.38L444.82 555.46H425.3L477.49 473.78C478.628 472.15 480.14 470.816 481.9 469.891C483.66 468.966 485.616 468.476 487.604 468.462C489.592 468.448 491.554 468.911 493.327 469.812C495.099 470.713 496.629 472.026 497.79 473.64L550.13 555.46H530.61L521.42 540.24H476.71L467 525.07M669.76 540.23V469.23H653.14V547.17C653.136 548.253 653.352 549.325 653.775 550.322C654.198 551.319 654.819 552.22 655.6 552.97C656.381 553.769 657.315 554.403 658.345 554.836C659.376 555.269 660.482 555.491 661.6 555.49H737L746.83 540.27H669.64M395.52 527.56C399.347 527.56 403.136 526.806 406.671 525.342C410.207 523.877 413.419 521.731 416.125 519.025C418.831 516.319 420.977 513.107 422.442 509.571C423.906 506.036 424.66 502.247 424.66 498.42C424.66 494.593 423.906 490.804 422.442 487.269C420.977 483.733 418.831 480.521 416.125 477.815C413.419 475.109 410.207 472.963 406.671 471.498C403.136 470.034 399.347 469.28 395.52 469.28H323V555.45H339.56V484.53H394.48C398.114 484.627 401.566 486.139 404.102 488.744C406.638 491.348 408.057 494.84 408.057 498.475C408.057 502.11 406.638 505.602 404.102 508.206C401.566 510.811 398.114 512.323 394.48 512.42H347.8L397.27 555.42H421.27L388.04 527.53H395.49M221.2 555.46H271.27C282.466 555.119 293.088 550.431 300.887 542.392C308.686 534.352 313.047 523.591 313.047 512.39C313.047 501.189 308.686 490.428 300.887 482.388C293.088 474.348 282.466 469.661 271.27 469.32H221.2C209.896 469.219 199.006 473.564 190.876 481.419C182.746 489.273 178.029 500.008 177.74 511.308C177.452 522.609 181.615 533.57 189.333 541.829C197.051 550.088 207.706 554.984 219 555.46H221.24M270.18 540.3H222.31C215.045 540.105 208.143 537.083 203.073 531.875C198.004 526.668 195.167 519.688 195.167 512.42C195.167 505.152 198.004 498.172 203.073 492.965C208.143 487.757 215.045 484.735 222.31 484.54H270.15C277.544 484.301 284.73 487.01 290.128 492.069C295.525 497.129 298.691 504.126 298.93 511.52C299.169 518.914 296.46 526.1 291.4 531.498C286.341 536.895 279.344 540.061 271.95 540.3H270.15M584.72 555.46H635.84L645.52 540.3H585.84C582.179 540.418 578.53 539.814 575.102 538.522C571.674 537.23 568.535 535.276 565.862 532.771C563.19 530.265 561.037 527.258 559.527 523.921C558.016 520.583 557.178 516.981 557.06 513.32C556.942 509.659 557.546 506.01 558.838 502.582C560.13 499.154 562.084 496.015 564.589 493.342C567.095 490.67 570.102 488.517 573.439 487.007C576.777 485.496 580.379 484.658 584.04 484.54H634.41L644.21 469.32H584.71C573.401 469.206 562.5 473.542 554.36 481.393C546.22 489.245 541.493 499.982 541.199 511.288C540.905 522.593 545.068 533.562 552.789 541.825C560.51 550.089 571.17 554.986 582.47 555.46H584.71M787.3 540.29C781.225 540.293 775.316 538.313 770.47 534.651C765.623 530.989 762.105 525.845 760.45 520H831.26L841 504.8H760.45C762.099 498.951 765.615 493.802 770.463 490.137C775.31 486.472 781.223 484.492 787.3 484.5H835.9L845.61 469.28H786.17C774.974 469.621 764.351 474.309 756.553 482.348C748.754 490.388 744.393 501.149 744.393 512.35C744.393 523.551 748.754 534.312 756.553 542.351C764.351 550.391 774.974 555.079 786.17 555.42H837.29L847 540.26H787.27" fill="white"/>
</g>
<defs>
<clipPath id="clip0_2_3060">
<rect width="1024" height="1024" fill="white"/>
</clipPath>
</defs>
</svg>
